!!! OTL: Berkowitz370
!!! Chapter: 1
!!! Section: III
!!! Page: 91
!!! Mode: 
!!! Encoder: DJB
**kern
*staff1
*I"Piano
=1-
*clefG2
*k[b-e-a-d-g-c-]
*G-:
*M2/4
4r
8r
8d-/
=2
12b-\L
12b-\
12b-\J
8b-/L
8a-/J
=3
8.a-/L
16g-/Jk
8g-/L
8f/J
=4
8.a-/L
16g-/Jk
8g-/L
8e-/J
=5
16e-/LK
8.d-/J
8r
8d-/
=6
12d-/L
12d-/
12d-/J
8f/L
8a-/J
=7
4cc-\
[4ee-\
=8
8ee-\L]
16dd-\L
16cc-\JJ
8b-/L
8an/J
=9
!!linebreak:original
4b-\
8r
8g-/
=10
12cc-\L
12cc-\
12cc-\J
8cc-\L
8b-\J
=11
8.cc-\L
16dd-\Jk
8ee-\L
8ff\J
=12
4.gg-\
8ee-\
=13
16ee-\LK
8.dd-\J
8r
8b-\
=14
12cc-\L
12cc-\
12cc-\J
8cc-\L
8a-\J
=15
12b-\L
12b-\
12b-\J
8b-/L
8g-/J
=16
8.a-/L
16d-/Jk
8e-/L
8f/J
=17
!!linebreak:original
16a-/LK
8.g-/J
4r
==
*-
